X:1
T:Title
%%score { ( 1 3 ) | ( 2 4 ) }
L:1/8
M:6/8
K:C
V:1 treble nm="Grand Piano"
V:3 treble 
V:2 bass 
V:4 bass 
V:1
 z3 z[Q:1/4=75] CF | [CA][B,^G][CA] [Ec][D_B][_B,=G] | [A,F] [CA]2- [CA][A,F][A,F] | %3
 [_B,G][A,^F][B,G] [D_B][CA][=B,^G] | [CA]3- [CA][A,C][A,F] | [CA][B,^G][CA] [Ec][D_B][_B,=G] | %6
 [A,F] [CA]2- [CA][CA][CA] | [B,G][B,D][CE] [DF][EG][DF] |[M:5/8] [CE]-[CE]- [CE]3 | %9
[M:1/4] [Ec][E_B] |[M:3/4] A^G Ad cA | [DG]D- D4 | z2 z .c3 | [CFA]2 [^Gd] [Ac]2 F/=G/ | %14
 A^G A[=GA] [G_B][GA] | [^Fd][FA] [Ac] _B2 A/G/ | FE F[Ed] [Ec]>E |[M:5/8] F-F- F3 |] %18
V:2
 z3 z A,A, | F,,C,F, C,,G,,C, | F,,C,F, F,,C,F, | C,,C,C, C,,C,C, | F,,A,,C, F,C,A,, | %5
 F,,C,F, C,,G,,C, | F,,C,F, F,,C,F, | G,,D,G, G,,D,G, |[M:5/8] C,D,E, C,2 |[M:1/4] [C,G,][C,C] | %10
[M:3/4] [F,CF][F,B,F] [F,CF][F,B,F] [F,A,F][F,CF] | [_B,,_B,][B,,B,]- [B,,B,]4 | %12
 [C,G,C][C,^F,C] [C,G,C]G,- [D,G,]E, | F,2 [F,B,] [F,C]2 [F,A,]/[F,B,F]/ | %14
 [F,CF][F,B,F] [F,CF][E,^C] [E,C][E,C] | %15
 [D,D][D,D] [^F,D][K:treble] [G,DG]2 [G,CD]/[K:bass][G,_B,D]/ | %16
 [C,A,C][C,G,C] [C,A,C][C,G,] [C,G,]>[C,_B,C] |[M:5/8] [F,A,C]-[F,A,C]- [F,A,C]3 |] %18
V:3
 x6 | x6 | x6 | x6 | x6 | x6 | x6 | x6 |[M:5/8] x5 |[M:1/4] x2 |[M:3/4] x6 | x6 | E_E =EE F[CG_B] | %13
 x6 | x6 | x6 | x6 |[M:5/8] x5 |] %18
V:4
 x6 | x6 | x6 | x6 | x6 | x6 | x6 | x6 |[M:5/8] x5 |[M:1/4] x2 |[M:3/4] x6 | x6 | z2 z C, z2 | x6 | %14
 x6 | x3[K:treble] x5/2[K:bass] x/ | x6 |[M:5/8] x5 |] %18

